src/images/youtube.svg

<svg width="62px" height="43px" viewBox="0 0 62 43" version="1.1" xmlns="http://www.w3.org/2000/svg" xmlns:xlink="http://www.w3.org/1999/xlink">
    <!-- Generator: Sketch 44.1 (41455) - http://www.bohemiancoding.com/sketch -->
    <desc>Created with Sketch.</desc>
    <defs></defs>
    <g id="Take-2" stroke="none" stroke-width="1" fill="none" fill-rule="evenodd">
        <g id="Desktop-HD-Copy-2" transform="translate(-1136.000000, -851.000000)" fill="#BF0000">
            <path d="M1160.32505,880.667716 L1160.32314,863.49026 L1176.84147,872.108601 L1160.32505,880.667716 Z M1194.09499,854.207758 C1191.76989,851.771849 1189.16395,851.760386 1187.96988,851.619007 C1179.41458,851 1166.58164,851 1166.58164,851 C1166.55489,851 1153.72195,851 1145.16666,851.619007 C1143.97068,851.760386 1141.36664,851.771849 1139.03963,854.207758 C1137.20745,856.062869 1136.61137,860.275559 1136.61137,860.275559 C1136.61137,860.275559 1136,865.223797 1136,870.170125 L1136,874.808859 C1136,879.757098 1136.61137,884.703426 1136.61137,884.703426 C1136.61137,884.703426 1137.20745,888.916115 1139.03963,890.771227 C1141.36664,893.207136 1144.42156,893.130715 1145.78185,893.384814 C1150.67277,893.854801 1166.56827,894 1166.56827,894 C1166.56827,894 1179.41458,893.980895 1187.96988,893.361887 C1189.16395,893.218599 1191.76989,893.207136 1194.09499,890.771227 C1195.92718,888.916115 1196.52517,884.703426 1196.52517,884.703426 C1196.52517,884.703426 1197.13654,879.757098 1197.13654,874.808859 L1197.13654,870.170125 C1197.13654,865.223797 1196.52517,860.275559 1196.52517,860.275559 C1196.52517,860.275559 1195.92718,856.062869 1194.09499,854.207758 Z" id="Fill-25"></path>
        </g>
    </g>
</svg>

<?xml version="1.0" encoding="UTF-8"?>
<svg xmlns="http://www.w3.org/2000/svg" viewBox="0 0 62 43">
  <g fill="none" fill-rule="evenodd">
    <g transform="translate(-1136 -851)" fill="#BF0000">
      <path d="m1160.3 880.67-0.00191-17.177 16.518 8.6183-16.516 8.5591zm33.77-26.46c-2.3251-2.4359-4.931-2.4474-6.1251-2.5888-8.5553-0.61901-21.388-0.61901-21.388-0.61901-0.02675 0-12.86 0-21.415 0.61901-1.196 0.14138-3.8 0.15284-6.127 2.5888-1.8322 1.8551-2.4283 6.0678-2.4283 6.0678s-0.61137 4.9482-0.61137 9.8946v4.6387c0 4.9482 0.61137 9.8946 0.61137 9.8946s0.59608 4.2127 2.4283 6.0678c2.327 2.4359 5.3819 2.3595 6.7422 2.6136 4.8909 0.46999 20.786 0.61519 20.786 0.61519s12.846-0.019105 21.402-0.63811c1.1941-0.14329 3.8-0.15475 6.1251-2.5907 1.8322-1.8551 2.4302-6.0678 2.4302-6.0678s0.61137-4.9463 0.61137-9.8946v-4.6387c0-4.9463-0.61137-9.8946-0.61137-9.8946s-0.59799-4.2127-2.4302-6.0678z"></path>
    </g>
  </g>
</svg>
